X:1
T:Conquering Now and Still to Conquer
T:Conquering Now and Still to Conquer
T:John Robson Sweney
T:Frances Jane (Fanny) Crosby, 1890
T:Public Domain Courtesy of the Cyber Hymnal™
T:Public Domain Courtesy of the Cyber Hymnal™
C:John Robson Sweney
Z:Public Domain
Z:Courtesy of the Cyber Hymnal™
%%score ( 1 2 ) ( 3 4 )
L:1/8
Q:1/4=125
M:9/8
K:Bb
V:1 treble 
V:2 treble 
V:3 bass 
V:4 bass 
V:1
 B,[B,D][DF] | [DB]3 [DF]3 ([B,D][DF])[FB] | [Bd]3 [FB]3 [DB][Ec][Fd] | [Ec]3 [DB]3 A3 | %4
w: 1.~Con- quer- ing|now and still * to|con- quer, Rid- eth a|king in His|
w: 2.~Con- quer- ing|now and still * to|con- quer, Who is this|won- der- ful|
w: 3.~Con- quer- ing|now and still * to|con- quer, Je- sus, Thou|rul- er of|
 [DB]6 B,[B,D][DF] | [DB]3 [DF]3 ([B,D][DF])[FB] | [Bd]3 [FB]3 [DB][Ec][Fd] | [=Ec]3 [EB]3 [CG]3 | %8
w: might; Lead- ing the|host of all * the|faith- ful In- to the|midst of the|
w: king? Whence are the|ar- mies which * He|lead- eth, While of His|glo- ry they|
w: all, Thrones and their|scep- ters all * shall|per- ish, Crowns and their|splen- dor shall|
 [CF]6 FFF | [EG]3 [EG]3 [^FA]3 | [GB]3 [GB]3 [GB][GB][GB] | [Ac]3 [FB]3 [Fc]3 | %12
w: fight; See them with|cour- age ad-|vanc- ing, Clad in their|bril- liant ar-|
w: sing? He is our|Lord and Re-|deem- er, Sav- ior and|mon- arch di-|
w: fall, Yet shall the|ar- mies Thou|lead- est, Faith- ful and|true to the|
 [Fd]6 [Fd][Fd][Fd] | [Ef]3 [Ee]3 c3 | [Fe]3 [Fd]3 [DB][Ec][Fd] | [Ec]3 [DB]3 [CA]3 | [DB]6 || %17
w: ray, Shout- ing the|name of their|lead- er, Hear them ex-|ult- ing- ly|say:|
w: vine; They are the|stars that for-|ev- er Bright in His|king- dom shall|shine.|
w: last, Find in Thy|man- sions e-|ter- nal Rest, when their|war- fare is|past.|
"^Refrain" [DF][EG][FA] | ([DB]3 [DB]3) ([DB][FA])[DB] | c3 F3 [DF][DF][DF] | [Fc]3 [Fd]3 [Fe]3 | %21
w: ||||
w: Not to the|strong * is * the|bat- tle, Not to the|swift is the|
w: ||||
 [Fd]6 [Fd][Fd][Fd] | [Ef]3 [Ee]3 c3 | [Fe]3 [Fd]3 [DB][Ec][Fd] | [Ec]3 [DB]3 [CA]3 | [DB]6 |] %26
w: |||||
w: race, Yet to the|true and the|faith- ful Vic- tory is|prom- ised through|grace.|
w: |||||
V:2
 B, x2 | x9 | x9 | x6 (C2 E) | x9 | x9 | x9 | x9 | x9 | x9 | x9 | x9 | x9 | x6 (G2 _G) | x9 | x9 | %16
 x6 || x3 | x9 | c3 F3 x3 | x9 | x9 | x6 (G2 _G) | x9 | x9 | x6 |] %26
V:3
 [B,,D,F,][D,F,][F,B,] | [F,B,]3 [B,,F,]3 ([B,,D,][D,F,])[F,B,] | %2
 [F,D]3 [D,B,]3 [B,,F,][B,,F,][B,,B,] | [E,G,]3 [B,,F,]3 [F,,F,]3 | %4
 [B,,F,]6 [B,,D,F,][D,F,][F,B,] | [F,B,]3 [B,,F,]3 ([B,,D,][D,F,])[F,B,] | %6
 [F,D]3 [D,B,]3 [B,,F,][B,,F,][B,,B,] | [C,G,]3 [C,G,]3 [C,B,]3 | [F,A,]6 [F,A,][F,A,][F,A,] | %9
 [E,B,]3 [E,B,]3 [D,D]3 | [G,D]3 [G,D]3 [G,D][G,D][G,D] | [F,E]3 [F,D]3 [A,C]3 | %12
 [F,B,]6 [_A,B,][A,B,][A,B,] | [G,B,]3 [G,B,]3 [E,E]3 | [F,B,]3 [F,B,]3 [B,,F,][B,,F,][B,,B,] | %15
 [E,G,]3 [D,F,]3 [F,,F,]3 | [B,,F,]6 || [B,,F,][C,G,][D,A,] | %18
 ([F,B,]3 [F,B,]3) ([F,B,][D,A,])[F,B,] | [C,C]3 F,3 [D,F,][D,F,][D,F,] | [F,A,]3 [F,B,]3 [F,C]3 | %21
 B,6 [_A,B,][A,B,][A,B,] | [G,B,]3 [G,B,]3 [E,E]3 | [F,B,]3 [F,B,]3 [B,,F,][B,,F,][B,,B,] | %24
 [E,G,]3 [D,F,]3 [F,,F,]3 | [B,,F,]6 |] %26
V:4
 x3 | x9 | x9 | x9 | x9 | x9 | x9 | x9 | x9 | x9 | x9 | x9 | x9 | x9 | x9 | x9 | x6 || x3 | x9 | %19
 x3 F,3 x3 | x9 | B,6 x3 | x9 | x9 | x9 | x6 |] %26

